!!!!SEGMENT: pl-kc--40102-iii-1-saf--002-020_zielenski-mikolaj--communiones-totius-anni-in-festo-s-laurentij-mart-qui-mihi-ministrat.krn
!!!cenid: 16xx:1551
!!!COM: Zieleński, Mikołaj
!!!COM-rismid: pe30013481
!!!CDT:
!!!CNT: Polish
!!!GTL: Communiones totius anni
!!!OTL: In festo S. Laurentij Mart./Qui mihi ministrat
!!!OMV: 020
!!!PDT: 1611
!!!AGN:
!!!SMS-siglum: PL-Kc
!!!SMS-shelfmark: 40102 III/1 Saf.
!!!SMS-shelfwork: 002-020 G
!!!SMS-variant:
!!!SMS-altvar:
!!!NIFC-rismid: 990069887
!!!URL-scan: https://cyfrowe.mnk.pl/dlibra/publication/24235/edition/23926/content?ref=desc
!!!ONB-nifc: UWAGA: str. 54-55. Numer w źródle: 22 przeprawione na 21. Uwaga: W xml metrum 2/1 do źródłowego C| i odpowiednio 3/1 do 3/2
!!!key:
**kern	**kern	**kern	**kern
*group1	*group1	*group1	*group1
*part4	*part3	*part2	*part1
*staff4	*staff3	*staff2	*staff1
*I""Organo	*	*	*
*Iorgan	*Iorgan	*Iorgan	*Iorgan
*ICklav	*ICklav	*ICklav	*ICklav
*clefF4	*clefC4	*clefC3	*clefC1
*k[b-]	*k[b-]	*k[b-]	*k[b-]
*F:	*F:	*F:	*F:
*M2/1	*M2/1	*M2/1	*M2/1
*met(C|)	*met(C|)	*met(C|)	*met(C|)
=1	=1	=1	=1
!	!LO:TX:a:t=Qui mihi miniſtrat.	!	!LO:TX:a:t=22. In feſto S.Laurentij Mart. 2.voces.
!LO:TX:t=P:problem:all/middle:global	!LO:TX:t=P:problem:all/middle:global	!LO:TX:t=P:problem:all/middle:global	!LO:TX:t=P:problem:all/middle:global
!LO:TX:t=P:problem:all\middle:global	!LO:TX:t=P:problem:all\middle:global	!LO:TX:t=P:problem:all\middle:global	!LO:TX:t=P:problem:all\middle:global
00r	1c	00r	0r
.	2c\	.	.
.	2G/	.	.
=2-	=2-	=2-	=2-
.	2A/	.	1cc
.	2F/	.	.
.	1c	.	2cc\
.	.	.	2g/
=3	=3	=3	=3
0r	2.F/	1f	2a\
.	.	.	2f/
.	4G/	.	.
.	4A/	2f\	1cc
.	4G/	.	.
.	4A/	2c/	.
.	4F/	.	.
!LO:SIC:v:t=custos F	!LO:SIC:v:t=custos B-	!LO:SIC:v:t=custos d	!LO:SIC:v:t=custos b-
!LO:LB:g=original	!LO:LB:g=original	!LO:LB:g=original	!LO:LB:g=original
=4	=4	=4	=4
!LO:TX:t=P:problem:skreślona pauza	!	!	!
1r	2B-\	2d\	2r
.	2G/	2B-/	1b-
1F	4F/	[y1f	.
.	4G/	.	.
.	4A/	.	4a\
.	4B-\	.	4g/
=5	=5	=5	=5
!	!	!LO:N:vis=4:xstem:cue	!
2F\	2.c\	2f]	4a\
.	.	.	4f/
2C/	.	2e\	2g/
.	4G/	.	.
2D/	4B-\	2d\	2f/
.	4A/	.	.
2BB-/	1d\	1f\	1b-\
=6-	=6-	=6-	=6-
1F	.	.	.
.	4c\	1f	4a\
.	4B-\	.	4g/
2r	2c\	.	2a\
2D/	4B-\	2f\	[y2dd\
.	4A/	.	.
=7	=7	=7	=7
!	!	!	!LO:N:xstem:cue
2.G\	4B-\	2d\	4dd\]
.	4c\	.	4cc\
.	2d\	1g	4b-\
4F\	.	.	4a\
2E-X\	2G/	.	4b-\
.	.	.	4g/
4D/	2e-X\	2g\	2.cc\
4C/	.	.	.
=8-	=8-	=8-	=8-
2G\	1d	2.g\	.
!	!	!	!LO:N:acc=#
.	.	.	8bn\
.	.	.	8a\
2GG/	.	.	2b\
.	.	4f\	.
1C	2r	4e\	2.cc\
.	.	4d\	.
.	2c\	[y2e\	.
.	.	.	8b\
.	.	.	8a\
=9	=9	=9	=9
!	!	!LO:N:xstem:cue	!
0r	2c\	4e\]	4g/
.	.	4f\	4a\
.	2G/	2g\	2b-\
.	2A/	2c/	2a\
.	2F/	1f\	2a\
=10-	=10-	=10-	=10-
2r	2.c\	.	1g
2C/	.	4e\	.
.	8B-\	4d\	.
.	8A\	.	.
2C/	4G/	2e\	1r
.	4A/	.	.
2GG/	2B-\	2d\	.
=11	=11	=11	=11
2AA/	2.A/	2.c/	2r
2FF/	.	.	2cc\
.	8G/	4d\	.
.	8F/	.	.
1C	2.G/	1e	2cc\
.	.	.	2g/
.	2c\	.	.
=12-	=12-	=12-	=12-
0r	.	2r	2a\
.	2A/	.	.
.	.	2f\	2f/
.	4B-\	.	.
.	2F/	2f\	2cc\
.	2A/	2c/	[y2cc\
=13	=13	=13	=13
!	!	!	!LO:N:xstem:cue
0r	1G	2d\	4cc\]
.	.	.	4b-\
.	.	2B-/	4b-\
.	.	.	8a\
.	.	.	8g\
.	2.F/	2f\	2a\
.	.	2.a\	2.cc\
.	4G/	.	.
=14-	=14-	=14-	=14-
1r	2.A/	.	.
.	.	4g\	4b-\
.	.	2f\	2a\
.	4B-\	.	.
2r	[y1c	2.e\	2.g/
2C/	.	.	.
.	.	4d\	4f/
=15	=15	=15	=15
!	!LO:N:vis=4:xstem:cue	!	!
2C/	2c]	2c/	4e/
.	.	.	4f/
2GG/	2B-\	2d\	2.g/
2AA/	2.A/	1.c	.
.	.	.	4f/
2FF/	.	.	4f/
.	4A/	.	8e/
.	.	.	8d/
=16-	=16-	=16-	=16-
1C	4G/	.	2e/
.	4F/	.	.
.	4E/	2e\	4g/
.	4F/	.	4a\
2r	2.G/	1d	2.b-\
2GG/	.	.	.
.	4F/	.	4a\
=17	=17	=17	=17
2.C/	2E/	1.e	4g/
.	.	.	4g/
.	2G/	.	1cc
4BB-/	.	.	.
2AA/	1.c	.	.
4GG/	.	2f\	4b-\
4FF/	.	.	4a\
=18-	=18-	=18-	=18-
1C	.	2e\	4g/
.	.	.	4c/
.	4B-\	2c/	2.f/
.	4A/	.	.
1C	4G/	2.c/	.
.	4F/	.	8e/
.	.	.	8d/
.	2G/	.	2e/
.	.	4B-/	.
=19	=19	=19	=19
!LO:TX:t=P:problem:niezidentyfikowany symbol	!LO:TX:t=P:problem:niezidentyfikowany symbol	!LO:TX:t=P:problem:niezidentyfikowany symbol	!
1r	1r	1r	1f
=20-	=20-	=20-	=20-
!	!	!	!LO:TX:t=P:problem:niezidentyfikowany symbol
2FF/	2F/	2.A/	1r
2F\	2A/	.	.
.	.	2d\	.
2G\	2B-\	.	0r
.	.	2e\	.
2E\	2G/	.	.
.	.	2c/	.
=21-	=21-	=21-	=21-
2F\	2.A/	.	.
.	.	2f\	.
2D/	.	.	.
.	8G/	8e\	.
.	8F/	8d\	.
1C	2.G/	2.e\	2r
.	.	.	2cc\
.	4c\	4e\	.
=22	=22	=22	=22
!LO:TX:b:t=Partitura Nicolai Zielenski.	!	!	!
0r	2B-\	4f\	2dd\
.	.	4d\	.
.	2G/	4g\	2b-\
.	.	4f\	.
.	2A/	4e\	2cc\
.	.	4c/	.
.	2F/	2f\	2a\
=23-	=23-	=23-	=23-
2r	2.c\	2.e\	1g
2C/	.	.	.
.	4c\	4e\	.
2D/	4A/	2f\	1r
.	2B-\	.	.
2BB-/	.	2d\	.
.	[<4G/	.	.
=24	=24	=24	=24
2C/	4G/]	2e\	1r
.	2A/	.	.
2AA/	.	2f#X\	.
.	2c\	.	.
2GG/	.	2g\	2r
.	8B-\	.	.
.	8A\	.	.
2.G\	2B-\	2d\	4r
.	.	.	4b-\
=25-	=25-	=25-	=25-
.	1A	2A/	2cc\
4F\	.	.	.
2.F\	.	2d\	2a\
.	1G	2G/	2b-\
!LO:TX:b:t=G 4	!	!	!
8E\	.	.	.
8D\	.	.	.
2E\	.	2c/	2g/
!LO:SIC:v:t=custos F	!LO:SIC:v:t=custos A	!LO:SIC:v:t=custos c	!LO:SIC:v:t=custos f
!LO:PB:g=original	!LO:PB:g=original	!LO:PB:g=original	!LO:PB:g=original
=26	=26	=26	=26
1F	2.A/	2.c/	2f/
.	.	.	2cc\
.	4A/	4c/	.
1r	4B-\	4d\	4b-\
.	4G/	4B-/	4b-\
.	4A/	4c/	4a\
.	4F/	4d\	4a\
=27-	=27-	=27-	=27-
2r	2.c\	2.e\	1g
2C/	.	.	.
.	2G/	4e\	.
4BB-/	.	4d\	1r
4BB-/	4D/	4d\	.
4AA/	4E/	4c/	.
4AA/	4F#X/	4c/	.
=28	=28	=28	=28
4GG/	4.G/	4B-/	0r
2BB-/	.	2d\	.
.	16F/	.	.
.	16E/	.	.
.	4D/	.	.
4AA/	4A/	2c/	.
1D	2A/	.	.
!	!	!LO:N:acc=#	!
.	.	8Bn/	.
.	.	8A/	.
!	!	!LO:SIC:v:s:t=2Bn/	!
.	4G/	2B-y/	.
.	4F/	.	.
=29-	=29-	=29-	=29-
1C	2.G/	2c/	2r
.	.	2.c/	2g/
.	4E/	.	.
1r	4F/	.	4a\
.	4F/	2d\	4a\
!	!	!	!LO:N:acc=#
.	4G/	.	4bn\
.	4G/	4g\	4b\
=30	=30	=30	=30
2r	2.A/	4f\	2.cc\
.	.	4e\	.
2FF/	.	2a\	.
.	4A/	.	4cc\
4GG/	8G/	4d\	4b-\
.	8F/	.	.
4GG/	8D/	4d\	4b-\
.	8E/	.	.
4AA/	8F/	4c/	4a\
.	8E/	.	.
4FF/	2F/	2c/	4a\
=31-	=31-	=31-	=31-
2.C/	.	.	2.g/
.	8E/	2G/	.
.	8D/	.	.
.	8E/	.	.
.	8F/	.	.
2GG/	8G/	2d\	8b-\
.	8A/	.	8a\
.	4B-\	.	8g/
.	.	.	8f/
4E-X\	4G/	2c/	4g/
2D/	4A/	.	2f/
!	!	!LO:N:acc=#	!
.	8G/	4Bn/	.
.	8F/	.	.
=32	=32	=32	=32
2C/	2G/	2c/	2e/
1C	4E/	1G	4c/
.	4F/	.	4d/
.	4G/	.	4e/
.	4A/	.	4f/
2GG/	2B-\	2d\	2.g/
=33-	=33-	=33-	=33-
2AA/	1A	1c	.
.	.	.	4f/
4GG/	.	.	2.f/
4FF/	.	.	.
1C	1G	2.c/	.
.	.	.	8e/
.	.	.	8d/
.	.	.	2e/
.	.	4B-/	.
=34	=34	=34	=34
!LO:TX:t=P:problem:niezidentyfikowany symbol	!LO:TX:t=P:problem:niezidentyfikowany symbol	!LO:TX:t=P:problem:niezidentyfikowany symbol	!LO:TX:t=P:problem:niezidentyfikowany symbol
0r	0r	0r	0r
=35-	=35-	=35-	=35-
2FF/	2.A/	2.c/	1.f
2.F\	.	.	.
.	4B-\	4B-/	.
.	2c\	2A/	.
4E\	.	.	.
4D/	2F/	2A/	2.ff\
4C/	.	.	.
=36-	=36-	=36-	=36-
1.BB-	1.F	2.B-/	.
.	.	.	4ee\
.	.	.	4dd\
.	.	4c/	4cc\
.	.	2d\	2b-\
2AA/	2F/	2c/	2cc\
=37	=37	=37	=37
0BB-	1F	4B-/	2.dd\
.	.	4F/	.
.	.	4B-/	.
.	.	4c/	4cc\
.	1.B-	2d\	4b-\
.	.	.	4f/
.	.	2d\	2b-\
=38-	=38-	=38-	=38-
00F\	.	00c\	00cc\
.	4A/	.	.
.	4G/	.	.
.	[1Al	.	.
=39-	=39-	=39-	=39-
.	0A]	.	.
==	==	==	==
*-	*-	*-	*-
!!!system-decoration: g1
!!!RDF**kern: l = terminal long
!!!RDF**kern: > = above
!!!RDF**kern: < = below
!!!AIN: 4 organ
!!!ENC: Andrzej Gręziak
!!!END: 2021-12-19
!!!EED: Jędrzej Mróz
!!!EST: 20220-01-03
